X:24
T: Tian le di zhu ku le wo
N: C1524
O: China, Guangxi, Tiandong
S: II, 520]
R: Shange, Zheyuan shange]
M: 4/8
L: 1/16
K: G
A2B6 | A2GED4 | B2A2B4 | A8 |
G2EGA2G2 | A4G2A2 | E2D6 | D8 |
E2G2G2EGA2 | G6A2G2 | G2E2D6 | G2E2D6- | D2D4z4

